static/favicon-light-mode.svg

<?xml version="1.0" encoding="UTF-8" standalone="no"?>
<svg
   viewBox="0 0 800 410"
   preserveAspectRatio="xMidYMid meet"
   style="transform: translate3d(0px, 0px, 0px); content-visibility: visible;"
   version="1.1"
   id="svg9"
   sodipodi:docname="favicon.svg"
   inkscape:version="1.4 (e7c3feb1, 2024-10-09)"
   xmlns:inkscape="http://www.inkscape.org/namespaces/inkscape"
   xmlns:sodipodi="http://sodipodi.sourceforge.net/DTD/sodipodi-0.dtd"
   xmlns="http://www.w3.org/2000/svg"
   xmlns:svg="http://www.w3.org/2000/svg">
  <sodipodi:namedview
     id="namedview9"
     pagecolor="#505050"
     bordercolor="#eeeeee"
     borderopacity="1"
     inkscape:showpageshadow="0"
     inkscape:pageopacity="0"
     inkscape:pagecheckerboard="0"
     inkscape:deskcolor="#505050"
     inkscape:zoom="1.32"
     inkscape:cx="400"
     inkscape:cy="204.92424"
     inkscape:window-width="2560"
     inkscape:window-height="1386"
     inkscape:window-x="2560"
     inkscape:window-y="25"
     inkscape:window-maximized="0"
     inkscape:current-layer="g3" />
  <defs
     id="defs1">
    <clipPath
       id="__lottie_element_15454">
      <rect
         width="800"
         height="410"
         x="0"
         y="0"
         id="rect1" />
    </clipPath>
  </defs>
  <g
     clip-path="url(#__lottie_element_15454)"
     id="g9">
    <g
       transform="matrix(1,0,0,1,400,206)"
       opacity="1"
       style="display: block;"
       id="g2">
      <g
         opacity="1"
         transform="matrix(1,0,0,1,0,0)"
         id="g1">
        <path
           stroke-linecap="butt"
           stroke-linejoin="miter"
           fill-opacity="0"
           stroke-miterlimit="10"
           stroke="rgb(39,96,123)"
           stroke-opacity="1"
           stroke-width="30"
           d=" M-343.8429870605469,6.861999988555908 C-343.9460144042969,4.5929999351501465 -343.9989929199219,2.305000066757202 -344,0 C-344.052001953125,-94.42400360107422 -258.489990234375,-159.13299560546875 -189,-160 C-132.28199768066406,-160.70799255371094 -83.81800079345703,-124.0009994506836 -60.577999114990234,-89.62000274658203 C0,0 -8.303999900817871,23.34000015258789 60.36600112915039,90.80899810791016 C60.36600112915039,90.80899810791016 60.36600112915039,90.80899810791016 60.36600112915039,90.80899810791016 C90.52400207519531,120.44000244140625 138.79600524902344,155.99099731445312 195,155 C272.2030029296875,153.63900756835938 343,79.49800109863281 343,0 C343,-88.63800048828125 274.625,-153.52000427246094 197,-160 C157.53599548339844,-163.2949981689453 79,-160.60400390625 0,0 C-16.673999786376953,33.895999908447266 -33.12900161743164,60.48099899291992 -49.07500076293945,81.33799743652344"
           id="path1" />
      </g>
    </g>
    <g
       transform="matrix(1,0,0,1,400.5,206.8209991455078)"
       opacity="1"
       style="display: block;"
       id="g4">
      <g
         opacity="1"
         transform="matrix(1,0,0,1,0,0)"
         id="g3"
         style="fill:#000000">
        <path
           stroke-linecap="butt"
           stroke-linejoin="miter"
           fill-opacity="0"
           stroke-miterlimit="10"
           stroke="rgb(255,255,255)"
           stroke-opacity="1"
           stroke-width="30"
           d=" M-343.8429870605469,6.861999988555908 C-343.9460144042969,4.5929999351501465 -343.9989929199219,2.305000066757202 -344,0 C-344.052001953125,-94.42400360107422 -258.489990234375,-159.13299560546875 -189,-160 C-132.28199768066406,-160.70799255371094 -83.81800079345703,-124.0009994506836 -60.577999114990234,-89.62000274658203 C0,0 -8.303999900817871,23.34000015258789 60.36600112915039,90.80899810791016 C60.36600112915039,90.80899810791016 60.36600112915039,90.80899810791016 60.36600112915039,90.80899810791016 C90.52400207519531,120.44000244140625 138.79600524902344,155.99099731445312 195,155 C272.2030029296875,153.63900756835938 343,79.49800109863281 343,0 C343,-88.63800048828125 274.625,-153.52000427246094 197,-160 C157.53599548339844,-163.2949981689453 79,-160.60400390625 0,0 C-16.673999786376953,33.895999908447266 -33.12900161743164,60.48099899291992 -49.07500076293945,81.33799743652344"
           id="path2"
           style="stroke:#0f1012;stroke-opacity:1;fill:#ef2c2c;fill-opacity:0" />
      </g>
    </g>
    <g
       transform="matrix(1,0,0,1,441.7560119628906,211.718994140625)"
       opacity="1"
       style="display: block;"
       id="g6">
      <g
         opacity="1"
         transform="matrix(1,0,0,1,0,0)"
         id="g5">
        <path
           stroke-linecap="butt"
           stroke-linejoin="miter"
           fill-opacity="0"
           stroke-miterlimit="10"
           stroke="rgb(39,96,123)"
           stroke-opacity="1"
           stroke-width="20"
           d=" M-193.9969940185547,123.00700378417969 C-214.01199340820312,127.77400207519531 -231.54200744628906,125.73899841308594 -246.21499633789062,124.22899627685547 C-261.3840026855469,122.66799926757812 -277.8089904785156,116.29399871826172 -293.1340026855469,106.04199981689453"
           id="path4"
           style="stroke:#27617c;stroke-opacity:1" />
      </g>
    </g>
    <g
       transform="matrix(1,0,0,1,441.7560119628906,211.718994140625)"
       opacity="1"
       style="display: block;"
       id="g8">
      <g
         opacity="1"
         id="g7"
         transform="matrix(1,0,0,1,0,0)">
        <path
           stroke-linecap="butt"
           stroke-linejoin="miter"
           fill-opacity="0"
           stroke-miterlimit="10"
           stroke="rgb(243,179,102)"
           stroke-opacity="1"
           stroke-width="20"
           d=" M131.32200622558594,-193.41000366210938 C145.76499938964844,-195.50999450683594 158.47300720214844,-195.42999267578125 169.1649932861328,-195.39100646972656 C210.9600067138672,-195.23800659179688 259.8919982910156,-172.45899963378906 296.8070068359375,-134.2899932861328"
           id="path6"
           style="stroke:#f2b564;stroke-opacity:1" />
      </g>
    </g>
  </g>
</svg>

<svg viewBox="0 0 800 410" style="transform:translate3d(0,0,0);content-visibility:visible" xmlns="http://www.w3.org/2000/svg"><defs><clipPath id="a"><path d="M0 0h800v410H0z"/></clipPath></defs><g clip-path="url(#a)"><path stroke-miterlimit="10" stroke="#27607b" stroke-width="30" d="M-343.843 6.862A153 153 0 0 1-344 0c-.052-94.424 85.51-159.133 155-160 56.718-.708 105.182 35.999 128.422 70.38C0 0-8.304 23.34 60.366 90.809 90.524 120.44 138.796 155.991 195 155c77.203-1.361 148-75.502 148-155 0-88.638-68.375-153.52-146-160-39.464-3.295-118-.604-197 160-16.674 33.896-33.129 60.481-49.075 81.338" transform="translate(400 206)" style="display:block" fill="none"/><g style="display:block"><g style="fill:#000"><path stroke-miterlimit="10" stroke="#fff" stroke-width="30" d="M-343.843 6.862A153 153 0 0 1-344 0c-.052-94.424 85.51-159.133 155-160 56.718-.708 105.182 35.999 128.422 70.38C0 0-8.304 23.34 60.366 90.809 90.524 120.44 138.796 155.991 195 155c77.203-1.361 148-75.502 148-155 0-88.638-68.375-153.52-146-160-39.464-3.295-118-.604-197 160-16.674 33.896-33.129 60.481-49.075 81.338" style="stroke:#0f1012;stroke-opacity:1;fill:#ef2c2c;fill-opacity:0" transform="translate(400.5 206.821)" fill="none"/></g></g><g style="display:block"><path stroke-miterlimit="10" stroke="#27607b" stroke-width="20" d="M-193.997 123.007c-20.015 4.767-37.545 2.732-52.218 1.222-15.169-1.561-31.594-7.935-46.919-18.187" style="stroke:#27617c;stroke-opacity:1" transform="translate(441.756 211.719)" fill="none"/></g><g style="display:block"><path stroke-miterlimit="10" stroke="#f3b366" stroke-width="20" d="M131.322-193.41c14.443-2.1 27.151-2.02 37.843-1.981 41.795.153 90.727 22.932 127.642 61.101" style="stroke:#f2b564;stroke-opacity:1" transform="translate(441.756 211.719)" fill="none"/></g></g></svg>
